X:15
T:Dieu, qui nous aime, Louange  Toi
T:(profession de Foi)
M:2/4
L:1/8
K:G
zG GG|G2 GD|E2 G2|D4||zB BB|B3 G|A2 A2|B4||zG GG|D2 DG|A2 A2|G4||
